packages/Snapp/src/PinIcon/index.svg

<?xml version="1.0" encoding="UTF-8"?>
<svg width="24px" height="24px" viewBox="0 0 24 24" version="1.1" xmlns="http://www.w3.org/2000/svg" xmlns:xlink="http://www.w3.org/1999/xlink">
    <title>Icons/24/Pin</title>
    <g id="Icons/24/Pin" stroke="none" stroke-width="1" fill="none" fill-rule="evenodd">
        <rect id="Container" fill-opacity="0" fill="#D8D8D8" fill-rule="nonzero" x="0" y="0" width="24" height="24"></rect>
        <path d="M18.363961,4.53514751 C21.8786797,7.91534418 21.8786797,13.3957258 18.363961,16.7759225 L13.5909903,21.3662131 C12.7123106,22.2112623 11.2876894,22.2112623 10.4090097,21.3662131 L5.63603897,16.7759225 C2.12132034,13.3957258 2.12132034,7.91534418 5.63603897,4.53514751 C9.15075759,1.15495083 14.8492424,1.15495083 18.363961,4.53514751 Z M12,6.83691662 C9.80710467,6.83691662 8.02941176,8.54657031 8.02941176,10.655535 C8.02941176,12.7644997 9.80710467,14.4741534 12,14.4741534 C14.1928953,14.4741534 15.9705882,12.7644997 15.9705882,10.655535 C15.9705882,8.54657031 14.1928953,6.83691662 12,6.83691662 Z" id="Shape" fill="#404040" fill-rule="nonzero"></path>
    </g>
</svg>

<svg viewBox="0 0 24 24" xmlns="http://www.w3.org/2000/svg" fill="currentColor" focusable="false">
  <path d="M18.364 4.535c3.515 3.38 3.515 8.86 0 12.24l-4.773 4.591a2.314 2.314 0 01-3.182 0l-4.773-4.59c-3.515-3.38-3.515-8.86 0-12.24 3.515-3.381 9.213-3.381 12.728 0zM12 6.837c-2.193 0-3.97 1.71-3.97 3.819 0 2.108 1.777 3.818 3.97 3.818 2.193 0 3.97-1.71 3.97-3.818 0-2.11-1.777-3.82-3.97-3.82z"/>
</svg>
